www/source/img/svg/calculator.svg

<svg width="72" height="72" viewBox="0 0 72 72" fill="none" xmlns="http://www.w3.org/2000/svg">
<path d="M66.7266 5.41406H32.9766C30.0687 5.41406 27.7031 7.77966 27.7031 10.6875V25.38H15.7964C15.2139 25.38 14.7417 25.8522 14.7417 26.4347C14.7417 27.0172 15.2139 27.4894 15.7964 27.4894H27.7031V31.221H10.6312C10.1423 31.221 9.71733 31.5571 9.60483 32.033C9.27408 33.4312 8.15231 34.5372 6.74691 34.8505C6.2647 34.958 5.92172 35.3859 5.92172 35.8799V56.0877C5.92172 56.5817 6.2647 57.0097 6.74691 57.1171C8.15217 57.4304 9.27394 58.5368 9.60483 59.9361C9.71733 60.4119 10.1423 60.748 10.6312 60.748H27.7031V61.3125C27.7031 62.4988 28.097 63.5946 28.7606 64.4766H2.10938V27.4894H11.1994C11.7818 27.4894 12.2541 27.0172 12.2541 26.4347C12.2541 25.8522 11.7818 25.38 11.1994 25.38H1.05469C0.472219 25.38 0 25.8522 0 26.4347V65.5312C0 66.1137 0.472219 66.5859 1.05469 66.5859H32.9766H59.5223C60.1048 66.5859 60.577 66.1137 60.577 65.5312C60.577 64.9488 60.1048 64.4766 59.5223 64.4766H32.9766C31.2318 64.4766 29.8125 63.0572 29.8125 61.3125V10.6875C29.8125 8.94277 31.2318 7.52344 32.9766 7.52344H66.7266C68.4713 7.52344 69.8906 8.94277 69.8906 10.6875V61.3125C69.8906 63.0572 68.4713 64.4766 66.7266 64.4766H64.1194C63.5369 64.4766 63.0647 64.9488 63.0647 65.5312C63.0647 66.1137 63.5369 66.5859 64.1194 66.5859H66.7266C69.6344 66.5859 72 64.2203 72 61.3125V10.6875C72 7.77966 69.6344 5.41406 66.7266 5.41406ZM8.03109 55.3078V36.6597C9.5625 36.0696 10.7938 34.8532 11.4012 33.3302H27.7031V58.6385H11.4013C10.7938 57.115 9.56236 55.8982 8.03109 55.3078Z" fill="#FF6D1C"/>
<path d="M65.6719 24.75V12.0938C65.6719 11.5113 65.1997 11.0391 64.6172 11.0391H57.2541C56.6716 11.0391 56.1994 11.5113 56.1994 12.0938C56.1994 12.6762 56.6716 13.1484 57.2541 13.1484H63.5625V23.6953H36.1406V13.1484H52.657C53.2395 13.1484 53.7117 12.6762 53.7117 12.0938C53.7117 11.5113 53.2395 11.0391 52.657 11.0391H35.0859C34.5035 11.0391 34.0312 11.5113 34.0312 12.0938V24.75C34.0312 25.3325 34.5035 25.8047 35.0859 25.8047H64.6172C65.1997 25.8047 65.6719 25.3325 65.6719 24.75Z" fill="#FF6D1C"/>
<path d="M41.7656 30.3813C41.7656 29.7988 41.2934 29.3266 40.7109 29.3266H35.0859C34.5035 29.3266 34.0312 29.7988 34.0312 30.3813V36.0063C34.0312 36.5888 34.5035 37.061 35.0859 37.061H40.7109C41.2934 37.061 41.7656 36.5888 41.7656 36.0063V30.3813ZM39.6562 34.9516H36.1406V31.436H39.6562V34.9516Z" fill="#FF6D1C"/>
<path d="M64.6172 29.3266H58.9922C58.4097 29.3266 57.9375 29.7988 57.9375 30.3813V36.0063C57.9375 36.5888 58.4097 37.061 58.9922 37.061H64.6172C65.1997 37.061 65.6719 36.5888 65.6719 36.0063V30.3813C65.6719 29.7988 65.1997 29.3266 64.6172 29.3266ZM63.5625 34.9516H60.0469V31.436H63.5625V34.9516Z" fill="#FF6D1C"/>
<path d="M53.7188 30.3813C53.7188 29.7988 53.2465 29.3266 52.6641 29.3266H47.0391C46.4566 29.3266 45.9844 29.7988 45.9844 30.3813V36.0063C45.9844 36.5888 46.4566 37.061 47.0391 37.061H52.6641C53.2465 37.061 53.7188 36.5888 53.7188 36.0063V30.3813ZM51.6094 34.9516H48.0938V31.436H51.6094V34.9516Z" fill="#FF6D1C"/>
<path d="M41.7656 41.6187C41.7656 41.0362 41.2934 40.564 40.7109 40.564H35.0859C34.5035 40.564 34.0312 41.0362 34.0312 41.6187V47.2437C34.0312 47.8261 34.5035 48.2983 35.0859 48.2983H40.7109C41.2934 48.2983 41.7656 47.8261 41.7656 47.2437V41.6187ZM39.6562 46.189H36.1406V42.6733H39.6562V46.189Z" fill="#FF6D1C"/>
<path d="M58.9922 59.5354H64.6172C65.1997 59.5354 65.6719 59.0632 65.6719 58.4807V41.6187C65.6719 41.0362 65.1997 40.564 64.6172 40.564H58.9922C58.4097 40.564 57.9375 41.0362 57.9375 41.6187V58.4809C57.9375 59.0632 58.4097 59.5354 58.9922 59.5354ZM60.0469 42.6733H63.5625V57.4262H60.0469V42.6733Z" fill="#FF6D1C"/>
<path d="M53.7188 41.6187C53.7188 41.0362 53.2465 40.564 52.6641 40.564H47.0391C46.4566 40.564 45.9844 41.0362 45.9844 41.6187V47.2437C45.9844 47.8261 46.4566 48.2983 47.0391 48.2983H52.6641C53.2465 48.2983 53.7188 47.8261 53.7188 47.2437V41.6187ZM51.6094 46.189H48.0938V42.6733H51.6094V46.189Z" fill="#FF6D1C"/>
<path d="M40.7109 51.801H35.0859C34.5035 51.801 34.0312 52.2732 34.0312 52.8557V58.4807C34.0312 59.0632 34.5035 59.5354 35.0859 59.5354H40.7109C41.2934 59.5354 41.7656 59.0632 41.7656 58.4807V52.8557C41.7656 52.2732 41.2934 51.801 40.7109 51.801ZM39.6562 57.426H36.1406V53.9104H39.6562V57.426Z" fill="#FF6D1C"/>
<path d="M52.6641 51.801H47.0391C46.4566 51.801 45.9844 52.2732 45.9844 52.8557V58.4807C45.9844 59.0632 46.4566 59.5354 47.0391 59.5354H52.6641C53.2465 59.5354 53.7188 59.0632 53.7188 58.4807V52.8557C53.7188 52.2732 53.2465 51.801 52.6641 51.801ZM51.6094 57.426H48.0938V53.9104H51.6094V57.426Z" fill="#FF6D1C"/>
<path d="M16.5877 41.8243C14.2938 41.8243 12.4277 43.6904 12.4277 45.9842C12.4277 48.278 14.2938 50.1441 16.5877 50.1441C18.8814 50.1441 20.7475 48.278 20.7475 45.9842C20.7475 43.6904 18.8814 41.8243 16.5877 41.8243ZM16.5877 48.0346C15.4569 48.0346 14.5371 47.1147 14.5371 45.9841C14.5371 44.8533 15.4569 43.9335 16.5877 43.9335C17.7183 43.9335 18.6382 44.8533 18.6382 45.9841C18.6382 47.1147 17.7183 48.0346 16.5877 48.0346Z" fill="#FF6D1C"/>
</svg>

<svg width="72" height="72" fill="none" xmlns="http://www.w3.org/2000/svg"><path d="M66.727 5.414h-33.75a5.28 5.28 0 00-5.274 5.274V25.38H15.796a1.055 1.055 0 100 2.11h11.907v3.731H10.631c-.489 0-.914.336-1.026.812a3.802 3.802 0 01-2.858 2.817 1.055 1.055 0 00-.825 1.03v20.208c0 .494.343.922.825 1.03a3.803 3.803 0 012.858 2.818c.112.476.537.812 1.026.812h17.072v.565c0 1.186.394 2.282 1.058 3.164H2.109V27.489h9.09a1.055 1.055 0 000-2.109H1.055C.472 25.38 0 25.852 0 26.435V65.53c0 .583.472 1.055 1.055 1.055h58.467a1.055 1.055 0 100-2.11H32.977a3.168 3.168 0 01-3.164-3.163V10.687a3.168 3.168 0 013.164-3.164h33.75a3.168 3.168 0 013.164 3.165v50.624a3.168 3.168 0 01-3.164 3.165h-2.608a1.055 1.055 0 100 2.109h2.608A5.28 5.28 0 0072 61.313V10.687a5.28 5.28 0 00-5.273-5.273zM8.03 55.308V36.66a5.944 5.944 0 003.37-3.33h16.302v25.31H11.401a5.946 5.946 0 00-3.37-3.331z" fill="#FF6D1C"/><path d="M65.672 24.75V12.094c0-.583-.472-1.055-1.055-1.055h-7.363a1.055 1.055 0 100 2.11h6.309v10.546H36.14V13.148h16.516a1.055 1.055 0 100-2.109h-17.57c-.582 0-1.055.472-1.055 1.055V24.75c0 .582.473 1.055 1.055 1.055h29.531c.583 0 1.055-.473 1.055-1.055zm-23.906 5.631c0-.582-.473-1.054-1.055-1.054h-5.625c-.582 0-1.055.472-1.055 1.054v5.625c0 .583.473 1.055 1.055 1.055h5.625c.582 0 1.055-.472 1.055-1.055v-5.625zm-2.11 4.57h-3.515v-3.515h3.515v3.516zm24.961-5.624h-5.625c-.582 0-1.054.472-1.054 1.054v5.625c0 .583.472 1.055 1.054 1.055h5.625c.583 0 1.055-.472 1.055-1.055v-5.625c0-.582-.472-1.054-1.055-1.054zm-1.055 5.625h-3.515v-3.516h3.516v3.516zm-9.843-4.571c0-.582-.473-1.054-1.055-1.054H47.04c-.582 0-1.055.472-1.055 1.054v5.625c0 .583.473 1.055 1.055 1.055h5.625c.582 0 1.055-.472 1.055-1.055v-5.625zm-2.11 4.57h-3.515v-3.515h3.515v3.516zm-9.843 6.668c0-.583-.473-1.055-1.055-1.055h-5.625c-.582 0-1.055.472-1.055 1.055v5.625c0 .582.473 1.054 1.055 1.054h5.625c.582 0 1.055-.472 1.055-1.054v-5.625zm-2.11 4.57h-3.515v-3.516h3.515v3.516zm19.336 13.346h5.625c.583 0 1.055-.472 1.055-1.054V41.619c0-.583-.472-1.055-1.055-1.055h-5.625c-.582 0-1.054.472-1.054 1.055V58.48c0 .582.472 1.054 1.054 1.054zm1.055-16.862h3.516v14.753h-3.516V42.673zm-6.328-1.054c0-.583-.473-1.055-1.055-1.055H47.04c-.582 0-1.055.472-1.055 1.055v5.625c0 .582.473 1.054 1.055 1.054h5.625c.582 0 1.055-.472 1.055-1.054v-5.625zm-2.11 4.57h-3.515v-3.516h3.515v3.516zM40.71 51.801h-5.624c-.582 0-1.055.472-1.055 1.055v5.625c0 .582.473 1.054 1.055 1.054h5.625c.582 0 1.055-.472 1.055-1.054v-5.625c0-.583-.473-1.055-1.055-1.055zm-1.054 5.625h-3.515V53.91h3.515v3.516zm13.008-5.625H47.04c-.582 0-1.055.472-1.055 1.055v5.625c0 .582.473 1.054 1.055 1.054h5.625c.582 0 1.055-.472 1.055-1.054v-5.625c0-.583-.473-1.055-1.055-1.055zm-1.055 5.625h-3.515V53.91h3.515v3.516zM16.588 41.824a4.165 4.165 0 00-4.16 4.16 4.165 4.165 0 004.16 4.16 4.165 4.165 0 004.16-4.16 4.165 4.165 0 00-4.16-4.16zm0 6.21c-1.131 0-2.05-.92-2.05-2.05s.919-2.05 2.05-2.05c1.13 0 2.05.92 2.05 2.05s-.92 2.05-2.05 2.05z" fill="#FF6D1C"/></svg>
